icons/1_Primary/SeatGeek.svg

<svg width="1024" height="1024" fill="none" xmlns="http://www.w3.org/2000/svg"><g clip-path="url(#a)"><path d="M512 1024c282.77 0 512-229.23 512-512S794.77 0 512 0 0 229.23 0 512s229.23 512 512 512Z" fill="#FF837D"/><path d="M588.84 333.07c-7.05.28-35.69 1.03-42.44 1.2L501.62 460.6c-18.35-.02-35.52-.13-54.24-.3v-32.68l33.44.39v-29.46l-33.44-.49v-31.37c36.36.84 53.14.67 53.12.67l-6.83-35s-43.49-.71-90.98-2.71v165.8c9.41.04 56.43.19 86.49.26v.02c5.48 0 10.68 0 15.82.02h4c7.5-.09 14.93-.09 22.93-.09l9.99-29.09c17.13-.06 34.23-.19 51.33-.37l10.08 29.29c14.89-.06 29.96.21 44.83.13l-59.31-162.54-.01-.01Zm-36.79 103.94 15.58-45.34 15.47 44.97c-10.33.15-20.69.28-31.05.37Zm114.32 58.56c14.87-.11 29.72.04 44.57-.09l.21-133.94c16.22-1.29 32.42-2.71 48.6-4.32l-6.89-37a2012.886 2012.886 0 0 1-128.09 11.17l-6.92 35.86c16.18-.69 32.36-1.53 48.52-2.51v130.83ZM316.15 368.94c0-20.18 43.13-14.74 63.02-3.03l1.85-39.86c-4.71-1.46-23.74-5.8-46.46-5.8-32.12 0-60.17 19-60.17 49.19 0 53.83 73.47 57.55 73.47 79.14 0 28.41-48.71 12.61-73.47-10.83v45.4s18.22 16.93 54.43 16.93c39.9 0 60.17-26 60.17-54.02.02-54.58-72.84-54.82-72.84-77.12Zm465.82 334.85-58.86-100.24 52.07-80.3h-50.24l-45.62 71.56c.17-23.81-.17-47.64 0-71.47-15.04-.04-29.54-.06-44.61-.09v167.11s29.46 1.81 44.61 2.99v-77.23l44.03 80.9c21.98 2.26 41.95 4.58 58.62 6.77Zm-334.51-84.56c11.11-.17 33.33-.41 33.33-.41v-29.76s-22.22.17-33.33.28v-31.48c31.16.02 53.05.19 53.05.19l-6.9-34.55h-90.85v165.89c20.93-1.36 78.5-2.67 98.05-2.73 2.3-11.71 4.6-23.44 6.9-35.13-20.09 0-40.18.24-60.25.67v-32.97Zm116.12-.34c10.34.15 20.69.32 31.03.56v-29.72c-10.34-.17-20.67-.28-31.03-.39V558.1l53.33.34-6.88-34.9s-60.77-.04-91.15-.04v163.18c30.94.02 64.68 1.01 97.86 2.71l7.2-35.39c-17.49-.62-44.44-1.51-60.34-1.85-.02-11.11-.02-22.2-.02-33.26Zm-247.07 4.17 27.12-1.33.02 34.55c-40.74 3.69-57.5-9.82-57.5-50.13 0-37.41 30.28-46.74 58.17-46.74 24.58 0 37.63 2.73 37.63 2.73l-7.37-38.76c-6.49-.32-17.99-.69-37.5-.69-45.08 0-95.06 21.57-95.06 89.84 0 57.46 39.28 86.68 89.11 82 35.09-3.29 50.86-4 50.86-4V590.52l-58.6 1.31-6.88 31.22v.01Z" fill="#fff"/></g><defs><clipPath id="a"><path fill="#fff" d="M0 0h1024v1024H0z"/></clipPath></defs></svg>

<svg width="1024" height="1024" viewBox="0 0 1024 1024" fill="none" xmlns="http://www.w3.org/2000/svg">
<g clip-path="url(#clip0_2_3420)">
<path d="M512 1024C794.77 1024 1024 794.77 1024 512C1024 229.23 794.77 0 512 0C229.23 0 0 229.23 0 512C0 794.77 229.23 1024 512 1024Z" fill="#FF837D"/>
<path d="M588.84 333.07C581.79 333.35 553.15 334.1 546.4 334.27L501.62 460.6C483.27 460.58 466.1 460.47 447.38 460.3V427.62L480.82 428.01V398.55L447.38 398.06V366.69C483.74 367.53 500.52 367.36 500.5 367.36L493.67 332.36C493.67 332.36 450.18 331.65 402.69 329.65V495.45C412.1 495.49 459.12 495.64 489.18 495.71V495.73C494.66 495.73 499.86 495.73 505 495.75H509C516.5 495.66 523.93 495.66 531.93 495.66L541.92 466.57C559.05 466.51 576.15 466.38 593.25 466.2L603.33 495.49C618.22 495.43 633.29 495.7 648.16 495.62L588.85 333.08L588.84 333.07ZM552.05 437.01L567.63 391.67L583.1 436.64C572.77 436.79 562.41 436.92 552.05 437.01ZM666.37 495.57C681.24 495.46 696.09 495.61 710.94 495.48L711.15 361.54C727.37 360.25 743.57 358.83 759.75 357.22L752.86 320.22C710.293 325.306 667.575 329.032 624.77 331.39L617.85 367.25C634.03 366.56 650.21 365.72 666.37 364.74V495.56V495.57ZM316.15 368.94C316.15 348.76 359.28 354.2 379.17 365.91L381.02 326.05C376.31 324.59 357.28 320.25 334.56 320.25C302.44 320.25 274.39 339.25 274.39 369.44C274.39 423.27 347.86 426.99 347.86 448.58C347.86 476.99 299.15 461.19 274.39 437.75V483.15C274.39 483.15 292.61 500.08 328.82 500.08C368.72 500.08 388.99 474.08 388.99 446.06C389.01 391.48 316.15 391.24 316.15 368.94ZM781.97 703.79L723.11 603.55L775.18 523.25H724.94L679.32 594.81C679.49 571 679.15 547.17 679.32 523.34C664.28 523.3 649.78 523.28 634.71 523.25V690.36C634.71 690.36 664.17 692.17 679.32 693.35V616.12L723.35 697.02C745.33 699.28 765.3 701.6 781.97 703.79ZM447.46 619.23C458.57 619.06 480.79 618.82 480.79 618.82V589.06C480.79 589.06 458.57 589.23 447.46 589.34V557.86C478.62 557.88 500.51 558.05 500.51 558.05L493.61 523.5H402.76V689.39C423.69 688.03 481.26 686.72 500.81 686.66C503.11 674.95 505.41 663.22 507.71 651.53C487.62 651.53 467.53 651.77 447.46 652.2V619.24V619.23ZM563.58 618.89C573.92 619.04 584.27 619.21 594.61 619.45V589.73C584.27 589.56 573.94 589.45 563.58 589.34V558.1L616.91 558.44L610.03 523.54C610.03 523.54 549.26 523.5 518.88 523.5V686.68C549.82 686.7 583.56 687.69 616.74 689.39L623.94 654C606.45 653.38 579.5 652.49 563.6 652.15C563.58 641.04 563.58 629.95 563.58 618.89ZM316.51 623.06L343.63 621.73L343.65 656.28C302.91 659.97 286.15 646.46 286.15 606.15C286.15 568.74 316.43 559.41 344.32 559.41C368.9 559.41 381.95 562.14 381.95 562.14L374.58 523.38C368.09 523.06 356.59 522.69 337.08 522.69C292 522.69 242.02 544.26 242.02 612.53C242.02 669.99 281.3 699.21 331.13 694.53C366.22 691.24 381.99 690.53 381.99 690.53V590.52L323.39 591.83L316.51 623.05V623.06Z" fill="white"/>
</g>
<defs>
<clipPath id="clip0_2_3420">
<rect width="1024" height="1024" fill="white"/>
</clipPath>
</defs>
</svg>
